X:5801
T:Sbrando di Bra
O:england
C:La Ciapa Rusa: Retanavota 4c
M:6/8
L:1/8
K:G
ded B2B|BcB G3|G2A BAB c2B A3|\
cdc A2A ABA F3|c2d fed|1 cBA B2G:|2 cBA G3||
|:d2d GdG|BGB d2B|ded fed|cBA B2G|\
d2d GdG|BGB d2B|ded fed|cBA G3:|
|:d2B GBd|c2A F3|f2e ded|cBA B2G|\
d2B GBd|c2A F3|f2e ded|cBA G3:|


